svgs/thin/square-envelope.svg

<svg xmlns="http://www.w3.org/2000/svg" viewBox="0 0 448 512"><!-- Font Awesome Pro 6.0.0-alpha2 by @fontawesome - https://fontawesome.com License - https://fontawesome.com/license (Commercial License) --><path d="M384 32H64C28.652 32 0 60.656 0 96V416C0 451.344 28.652 480 64 480H384C419.344 480 448 451.344 448 416V96C448 60.656 419.344 32 384 32ZM432 416C432 442.469 410.469 464 384 464H64C37.531 464 16 442.469 16 416V96C16 69.531 37.531 48 64 48H384C410.469 48 432 69.531 432 96V416ZM352 144H96C78.328 144 64 158.326 64 176V336C64 353.674 78.328 368 96 368H352C369.674 368 384 353.674 384 336V176C384 158.326 369.674 144 352 144ZM368 336C368 344.822 360.822 352 352 352H96C87.178 352 80 344.822 80 336V216.264L203.406 290.281C209.766 294.125 216.875 296.031 224 296.031S238.234 294.125 244.578 290.313L368 216.266V336ZM368 197.584L236.344 276.594C228.75 281.156 219.266 281.188 211.641 276.562L80 197.584V176C80 167.178 87.178 160 96 160H352C360.822 160 368 167.178 368 176V197.584Z"/></svg>

<svg xmlns="http://www.w3.org/2000/svg" viewBox="0 0 448 512"><!--! Font Awesome Pro 6.4.0 by @fontawesome - https://fontawesome.com License - https://fontawesome.com/license (Commercial License) Copyright 2023 Fonticons, Inc. --><path d="M384 48c26.5 0 48 21.5 48 48V416c0 26.5-21.5 48-48 48H64c-26.5 0-48-21.5-48-48V96c0-26.5 21.5-48 48-48H384zM64 32C28.7 32 0 60.7 0 96V416c0 35.3 28.7 64 64 64H384c35.3 0 64-28.7 64-64V96c0-35.3-28.7-64-64-64H64zM352 160c8.8 0 16 7.2 16 16v6.7l-4 2.6L234.4 268.9c-3.1 2-6.7 3.1-10.4 3.1s-7.3-1.1-10.4-3.1L84 185.3l-4-2.6V176c0-8.8 7.2-16 16-16H352zm16 41.7V336c0 8.8-7.2 16-16 16H96c-8.8 0-16-7.2-16-16V201.7l124.9 80.6c5.7 3.7 12.3 5.6 19.1 5.6s13.4-2 19.1-5.6L368 201.7zM96 144c-17.7 0-32 14.3-32 32V336c0 17.7 14.3 32 32 32H352c17.7 0 32-14.3 32-32V176c0-17.7-14.3-32-32-32H96z"/></svg>
